X:2285
T:Körepolska
T:(DAL Ingemar Ingers)
T:efter Ture Larsson
R:Körepolska
O:Åkarp, Skåne
B:Dialekt- och Ortnamnarkivet Lund
Z:Åke Persson 2012-03-19
M:3/4
L:1/8
K:D
A, |: DE F2 FG | EF D2 D d | dd B2 GB |1 dB A2 zA, :|2 dB A2 zd |]
|: dB G2 GB | BA D2 FA | AG A,2 CD |1 EF D2 zd :|2 EF D2 z2 |]
(:musicend:)
Ingemar Ingers uppteckning saknar förtecken men han avser nog tonarten D.
Några D:n ser ut som E:n i hans not men har här korrigerats.
Kanske en oreflekterad avskrift fån otydlig förlaga?

Det finns ytterligare en uppteckning eller avskrift av Ingemar Ingers,
på denna melodi, som dock sägs vara från Vollsjö.
Den har också samma problematik med tonart och toner som ovan.
(:music:)
